build/img/illus-stackoverflow.svg

<?xml version="1.0" encoding="UTF-8" standalone="no"?>
<svg width="34px" height="41px" viewBox="0 0 34 41" version="1.1" xmlns="http://www.w3.org/2000/svg" xmlns:xlink="http://www.w3.org/1999/xlink" xmlns:sketch="http://www.bohemiancoding.com/sketch/ns">
    <!-- Generator: Sketch 3.5.2 (25235) - http://www.bohemiancoding.com/sketch -->
    <title>illus-stackoverflow</title>
    <desc>Created with Sketch.</desc>
    <defs></defs>
    <g id="Page-1" stroke="none" stroke-width="1" fill="none" fill-rule="evenodd" sketch:type="MSPage">
        <g id="Desktop-HD" sketch:type="MSArtboardGroup" transform="translate(-808.000000, -885.000000)">
            <g id="stackoverflow" sketch:type="MSLayerGroup" transform="translate(715.000000, 836.000000)">
                <g id="illus-stackoverflow" transform="translate(93.000000, 49.000000)" sketch:type="MSShapeGroup">
                    <path d="M7.8544522,33.0427327 L25.3963432,33.0427327 L25.3963432,29.5085162 L7.8544522,29.5085162 L7.8544522,33.0427327 Z M23.5763363,0.500308925 L20.7612388,2.60946635 L31.2304738,16.7886098 L34.0455379,14.6794188 L23.5763363,0.500308925 Z M14.8747315,8.85967678 L28.3541256,20.1684708 L30.5993512,17.4526113 L17.1199572,6.14388455 L14.8747315,8.85967678 Z M10.4742213,16.7185062 L26.3761879,24.1789617 L27.8573476,20.9751663 L11.955381,13.5147109 L10.4742213,16.7185062 Z M8.2028073,24.9988983 L25.3697545,28.6334309 L26.0913187,25.174695 L8.92437141,21.5401624 L8.2028073,24.9988983 Z" id="path24" fill="#F58923"></path>
                    <path d="M28.8809951,36.5774534 L28.8809951,25.9741652 L32.3893667,25.9741652 L32.3893667,40.1122077 L0.833805905,40.1122077 L0.833805905,25.9741652 L4.34217744,25.9741652 L4.34217744,36.5774534 L28.8809951,36.5774534" id="path24-path" fill="#FFFFFF"></path>
                </g>
            </g>
        </g>
    </g>
</svg>

<svg width="34" height="41" viewBox="0 0 34 41" xmlns="http://www.w3.org/2000/svg"><title>illus-stackoverflow</title><g fill="none" fill-rule="evenodd"><path d="M7.854 33.043h17.542V29.51H7.854v3.533zM23.576.5L20.76 2.61l10.47 14.18 2.816-2.11L23.576.5zm-8.7 8.36l13.478 11.308 2.245-2.715-13.48-11.31-2.245 2.717zm-4.402 7.86l15.902 7.46 1.48-3.205-15.9-7.46-1.482 3.204zM8.204 25l17.166 3.633.72-3.458L8.925 21.54 8.204 25z" fill="#F58923"/><path d="M28.88 36.577V25.974h3.51v14.138H.833V25.974h3.508v10.603h24.54" fill="#FFF"/></g></svg>
